pro/src/icons/stroke-video.svg

<svg width="49" height="48" viewBox="0 0 49 48" fill="none" xmlns="http://www.w3.org/2000/svg" id="icon" >
<path fill-rule="evenodd" clip-rule="evenodd" d="M6.5 8C5.39228 8 4.5 8.89228 4.5 10V11H11.5V8H10.5H6.5ZM13.5 8V11H23.5V8H13.5ZM4.5 13H12.5H24.5H36.5H44.5V35H36.5H34.5L34.4938 35H24.5062L24.5 35L24.4938 35H12.5062L12.5 35L12.4938 35H4.5V22.77V21.05C4.5 20.4977 4.05228 20.05 3.5 20.05C2.94772 20.05 2.5 20.4977 2.5 21.05V22.77V37V38C2.5 40.2123 4.28772 42 6.5 42H12.5H24.5H27.5C28.0523 42 28.5 41.5523 28.5 41C28.5 40.4477 28.0523 40 27.5 40H25.5V37L34.5 37H34.5062H35.5V40H33.5C32.9477 40 32.5 40.4477 32.5 41C32.5 41.5523 32.9477 42 33.5 42H36.5H42.5C44.7123 42 46.5 40.2123 46.5 38V37V11V10C46.5 7.78772 44.7123 6 42.5 6H36.5H24.5H12.5H10.5H6.5C4.28772 6 2.5 7.78772 2.5 10V11V15.23C2.5 15.7823 2.94772 16.23 3.5 16.23C4.05228 16.23 4.5 15.7823 4.5 15.23V13ZM35.5 8H25.5V11H35.5V8ZM37.5 11V8H42.5C43.6077 8 44.5 8.89228 44.5 10V11H37.5ZM42.5 40H37.5V37H44.5V38C44.5 39.1077 43.6077 40 42.5 40ZM11.5 37L4.5 37V38C4.5 39.1077 5.39228 40 6.5 40H11.5V37ZM13.5 40V37L23.5 37V40H13.5ZM29.5272 22.4456L23.0411 19.1875C21.8771 18.5966 20.52 19.455 20.52 20.74V27.27C20.52 28.555 21.877 29.4134 23.0411 28.8225L29.5289 25.5636L29.5289 25.5637L29.5403 25.5578C30.7864 24.9117 30.8175 23.0917 29.5282 22.4461L29.5272 22.4456ZM28.1761 24.005L22.52 21.1639V26.8461L28.1761 24.005Z" fill="currentColor"/>
</svg>

<svg xmlns="http://www.w3.org/2000/svg" id="icon" width="49" height="48" fill="none"><path fill="currentColor" fill-rule="evenodd" d="M6.5 8c-1.108 0-2 .892-2 2v1h7V8zm7 0v3h10V8zm-9 5h40v22h-40V21.05a1 1 0 1 0-2 0V38c0 2.212 1.788 4 4 4h21a1 1 0 1 0 0-2h-2v-3h10v3h-2a1 1 0 1 0 0 2h9c2.212 0 4-1.788 4-4V10c0-2.212-1.788-4-4-4h-36c-2.212 0-4 1.788-4 4v5.23a1 1 0 1 0 2 0zm31-5h-10v3h10zm2 3V8h5c1.108 0 2 .892 2 2v1zm5 29h-5v-3h7v1c0 1.108-.892 2-2 2m-31-3h-7v1c0 1.108.892 2 2 2h5zm2 3v-3h10v3zm16.027-17.554-6.486-3.259c-1.164-.59-2.521.268-2.521 1.553v6.53c0 1.285 1.357 2.143 2.521 1.553l6.488-3.26.011-.005c1.246-.646 1.277-2.466-.012-3.112m-1.35 1.559-5.657-2.841v5.682z" clip-rule="evenodd"/></svg>
